X: 32046
T: Peggy's
R: jig
M: 6/8
K: Gmajor
|:B3 GBd|cBc E2G|F3 DFA|GBG D2A|
B3 GBd|cBc E2G|F3 AFD|GBA G3:|
|:d2d dB/c/d|g3 d2g|f3 A2B|cBc B2c|
d2d dB/c/d|g3 d2g|fed cAF|AGF G3:|

